icons/survey-fill.svg

<svg width="24" height="24" fill="none" xmlns="http://www.w3.org/2000/svg"><g clip-path="url(#a)"><path d="M6 4v4h12V4h2.007c.548 0 .993.445.993.993v16.014a.994.994 0 0 1-.993.993H3.993A.994.994 0 0 1 3 21.007V4.993C3 4.445 3.445 4 3.993 4H6Zm3 13H7v2h2v-2Zm0-3H7v2h2v-2Zm0-3H7v2h2v-2Zm7-9v4H8V2h8Z" /></g><defs><clipPath id="a"><path fill="#fff" d="M0 0h24v24H0z"/></clipPath></defs></svg>

<svg xmlns="http://www.w3.org/2000/svg" width="24" height="24" fill="none"><g clip-path="url(#a)"><g><path fill="#121212" d="M6 4V8H18V4H20.007C20.555 4 21 4.445 21 4.993V21.007C21 21.555 20.555 22 20.007 22H3.993C3.445 22 3 21.555 3 21.007V4.993C3 4.445 3.445 4 3.993 4H6ZM9 17H7V19H9V17ZM9 14H7V16H9V14ZM9 11H7V13H9V11ZM16 2V6H8V2H16Z"/></g></g><defs><clipPath id="a"><rect width="24" height="24" fill="white"/></clipPath></defs></svg>
